Sources/FrostedUI/Resources/Icons.xcassets/barsFilter20.imageset/bars-filter-20.svg

<svg
  width="20"
  height="20"
  viewBox="0 0 20 20"
  fill="none"
  xmlns="http://www.w3.org/2000/svg"
  data-fui-icon="true"
>
  <path
    fill-rule="evenodd"
    clip-rule="evenodd"
    d="M1 5C1 4.58579 1.33579 4.25 1.75 4.25H18.25C18.6642 4.25 19 4.58579 19 5 19 5.41421 18.6642 5.75 18.25 5.75H1.75C1.33579 5.75 1 5.41421 1 5zM3.5 10C3.5 9.58579 3.83579 9.25 4.25 9.25H15.75C16.1642 9.25 16.5 9.58579 16.5 10 16.5 10.4142 16.1642 10.75 15.75 10.75H4.25C3.83579 10.75 3.5 10.4142 3.5 10zM6.625 15C6.625 14.5858 6.96079 14.25 7.375 14.25H12.625C13.0392 14.25 13.375 14.5858 13.375 15 13.375 15.4142 13.0392 15.75 12.625 15.75H7.375C6.96079 15.75 6.625 15.4142 6.625 15z"
    fill="currentColor"
  />
</svg>

<svg xmlns="http://www.w3.org/2000/svg" width="20" height="20" fill="none" data-fui-icon="true" viewBox="0 0 20 20"><path fill="currentColor" fill-rule="evenodd" d="M1 5a.75.75 0 0 1 .75-.75h16.5a.75.75 0 0 1 0 1.5H1.75A.75.75 0 0 1 1 5m2.5 5a.75.75 0 0 1 .75-.75h11.5a.75.75 0 0 1 0 1.5H4.25A.75.75 0 0 1 3.5 10m3.125 5a.75.75 0 0 1 .75-.75h5.25a.75.75 0 0 1 0 1.5h-5.25a.75.75 0 0 1-.75-.75" clip-rule="evenodd"/></svg>
